packages/kaspersky-hexa-ui-icons/src/iconsSVGs/24/LineBreak.svg

<svg width="24" height="24" viewBox="0 0 24 24" fill="none" xmlns="http://www.w3.org/2000/svg">
<path d="M19 4C19 3.44772 18.5523 3 18 3C17.4477 3 17 3.44772 17 4V15H6.41421L8.70711 12.7071C9.09763 12.3166 9.09763 11.6834 8.70711 11.2929C8.31658 10.9024 7.68342 10.9024 7.29289 11.2929L3.29289 15.2929C2.90237 15.6834 2.90237 16.3166 3.29289 16.7071L7.29289 20.7071C7.68342 21.0976 8.31658 21.0976 8.70711 20.7071C9.09763 20.3166 9.09763 19.6834 8.70711 19.2929L6.41421 17H18C18.5523 17 19 16.5523 19 16V4Z" fill="black"/>
</svg>

<svg xmlns="http://www.w3.org/2000/svg" width="24" height="24" fill="none" viewBox="0 0 24 24"><path fill="#000" d="M19 4c0-.5523-.4477-1-1-1s-1 .4477-1 1v11H6.4142l2.293-2.2929c.3904-.3905.3904-1.0237 0-1.4142-.3906-.3905-1.0238-.3905-1.4143 0l-4 4c-.3905.3905-.3905 1.0237 0 1.4142l4 4c.3905.3905 1.0237.3905 1.4142 0s.3905-1.0237 0-1.4142L6.4142 17H18c.5523 0 1-.4477 1-1z"/></svg>
